images/stage-battery.svg

<?xml version="1.0" encoding="UTF-8" standalone="no"?>
<svg width="60px" height="60px" viewBox="0 0 60 60" version="1.1" xmlns="http://www.w3.org/2000/svg" xmlns:xlink="http://www.w3.org/1999/xlink" xmlns:sketch="http://www.bohemiancoding.com/sketch/ns">
    <!-- Generator: Sketch 3.3.3 (12081) - http://www.bohemiancoding.com/sketch -->
    <title>stage-battery</title>
    <desc>Created with Sketch.</desc>
    <defs></defs>
    <g id="Page-1" stroke="none" stroke-width="1" fill="none" fill-rule="evenodd" sketch:type="MSPage">
        <g id="stage-battery" sketch:type="MSArtboardGroup" fill="#9B9B9B">
            <path d="M54.5555556,23.8571429 L53.1111111,23.8571429 L53.1111111,16.7142857 C53.1111111,15.9142857 52.4755556,15.2857143 51.6666667,15.2857143 L5.44444444,15.2857143 C4.63555556,15.2857143 4,15.9142857 4,16.7142857 L4,45.2857143 C4,46.0857143 4.63555556,46.7142857 5.44444444,46.7142857 L51.6666667,46.7142857 C52.4755556,46.7142857 53.1111111,46.0857143 53.1111111,45.2857143 L53.1111111,38.1428571 L54.5555556,38.1428571 C55.3644444,38.1428571 56,37.5142857 56,36.7142857 L56,25.2857143 C56,24.4857143 55.3644444,23.8571429 54.5555556,23.8571429 L54.5555556,23.8571429 Z M53.1111111,35.2857143 L51.6666667,35.2857143 C50.8577778,35.2857143 50.2222222,35.9142857 50.2222222,36.7142857 L50.2222222,43.8571429 L6.88888889,43.8571429 L6.88888889,18.1428571 L50.2222222,18.1428571 L50.2222222,25.2857143 C50.2222222,26.0857143 50.8577778,26.7142857 51.6666667,26.7142857 L53.1111111,26.7142857 L53.1111111,35.2857143 L53.1111111,35.2857143 Z" id="Shape" sketch:type="MSShapeGroup"></path>
            <path d="M40.1111111,30.3142857 L31.6177778,30.3142857 L31.6177778,23.6285714 C31.6177778,23.4 31.5022222,23.1714286 31.2711111,23 C31.04,22.8857143 30.8088889,22.8857143 30.5777778,23 L16.7111111,30.3714286 C16.4222222,30.5428571 16.2488889,30.8857143 16.3644444,31.1714286 C16.4222222,31.5142857 16.7111111,31.6857143 17.0577778,31.6857143 L25.6088889,31.6857143 L25.6088889,38.3714286 C25.6088889,38.6 25.7244444,38.8285714 25.9555556,39 C26.0711111,39.0571429 26.1866667,39.1142857 26.3022222,39.1142857 C26.4177778,39.1142857 26.5333333,39.1142857 26.6488889,39.0571429 L40.5155556,31.6857143 C40.8044444,31.5142857 40.9777778,31.1714286 40.8622222,30.8857143 C40.7466667,30.4857143 40.4577778,30.3142857 40.1111111,30.3142857 L40.1111111,30.3142857 Z M26.9955556,37.2285714 L26.9955556,31 C26.9955556,30.6 26.6488889,30.2571429 26.2444444,30.2571429 L19.8888889,30.2571429 L30.1733333,24.7714286 L30.1733333,31 C30.1733333,31.4 30.52,31.7428571 30.9244444,31.7428571 L37.28,31.7428571 L26.9955556,37.2285714 L26.9955556,37.2285714 Z" id="Shape" sketch:type="MSShapeGroup"></path>
        </g>
    </g>
</svg>

<svg width="60" height="60" xmlns="http://www.w3.org/2000/svg"><g id="Page-1" stroke="none" stroke-width="1" fill="none" fill-rule="evenodd"><g id="stage-battery" fill="#9B9B9B"><path d="M54.556 23.857H53.11v-7.143c0-.8-.635-1.428-1.444-1.428H5.444c-.808 0-1.444.628-1.444 1.428v28.572c0 .8.636 1.428 1.444 1.428h46.223c.809 0 1.444-.628 1.444-1.428v-7.143h1.445c.808 0 1.444-.629 1.444-1.429V25.286c0-.8-.636-1.429-1.444-1.429zM53.11 35.286h-1.444c-.81 0-1.445.628-1.445 1.428v7.143H6.89V18.143h43.333v7.143c0 .8.636 1.428 1.445 1.428h1.444v8.572z" id="Shape"/><path d="M40.111 30.314h-8.493V23.63c0-.229-.116-.458-.347-.629a.744.744 0 00-.693 0l-13.868 7.37c-.289.172-.462.515-.347.8.058.343.347.515.694.515h8.55v6.685c0 .229.116.458.348.629.115.057.23.114.346.114.116 0 .231 0 .347-.057l13.867-7.371c.288-.172.462-.515.346-.8-.115-.4-.404-.572-.75-.572zM26.996 37.23V31a.76.76 0 00-.752-.743H19.89l10.284-5.486V31c0 .4.347.743.751.743h6.356l-10.284 5.486z" id="Shape"/></g></g></svg>
